build/img/search_button_yellow.svg

<svg width="17" height="17" viewBox="0 0 17 17" fill="none" xmlns="http://www.w3.org/2000/svg">
<path d="M10.8182 1.85353C8.34684 -0.617843 4.3245 -0.617843 1.85313 1.85353C-0.617709 4.32543 -0.617709 8.34724 1.85313 10.8191C4.05395 13.0194 7.48162 13.2552 9.95138 11.537C10.0033 11.7829 10.1223 12.0176 10.3135 12.2089L13.9126 15.808C14.4371 16.3314 15.2847 16.3314 15.8065 15.808C16.3304 15.284 16.3304 14.4365 15.8065 13.9141L12.2074 10.3139C12.0172 10.1243 11.782 10.0048 11.5361 9.95285C13.2553 7.48255 13.0196 4.05542 10.8182 1.85353ZM9.6819 9.68284C7.83681 11.5279 4.83399 11.5279 2.98943 9.68284C1.14541 7.83775 1.14541 4.83546 2.98943 2.99037C4.83399 1.14581 7.83681 1.14581 9.6819 2.99037C11.527 4.83546 11.527 7.83775 9.6819 9.68284Z" fill="#FBFF3D"/>
</svg>

<svg width="17" height="17" fill="none" xmlns="http://www.w3.org/2000/svg"><path d="M10.818 1.854a6.347 6.347 0 00-8.965 0 6.349 6.349 0 000 8.965c2.201 2.2 5.629 2.436 8.098.718.052.246.171.48.362.672l3.6 3.599a1.338 1.338 0 101.893-1.894l-3.599-3.6a1.34 1.34 0 00-.67-.361c1.718-2.47 1.483-5.898-.719-8.1zM9.682 9.683a4.738 4.738 0 01-6.693 0 4.74 4.74 0 010-6.693 4.739 4.739 0 016.693 0 4.738 4.738 0 010 6.693z" fill="#FBFF3D"/></svg>
